Catalina-dark/places/scalable/folder-games.svg

<?xml version="1.0" encoding="UTF-8" standalone="no"?>
<!-- Created with Inkscape (http://www.inkscape.org/) -->

<svg
   xmlns:dc="http://purl.org/dc/elements/1.1/"
   xmlns:cc="http://creativecommons.org/ns#"
   xmlns:rdf="http://www.w3.org/1999/02/22-rdf-syntax-ns#"
   xmlns:svg="http://www.w3.org/2000/svg"
   xmlns="http://www.w3.org/2000/svg"
   xmlns:xlink="http://www.w3.org/1999/xlink"
   xmlns:sodipodi="http://sodipodi.sourceforge.net/DTD/sodipodi-0.dtd"
   xmlns:inkscape="http://www.inkscape.org/namespaces/inkscape"
   version="1.1"
   id="svg2"
   width="128"
   height="128"
   viewBox="0 0 128 128"
   sodipodi:docname="folder-games.svg"
   inkscape:version="0.92.4 5da689c313, 2019-01-14">
  <metadata
     id="metadata8">
    <rdf:RDF>
      <cc:Work
         rdf:about="">
        <dc:format>image/svg+xml</dc:format>
        <dc:type
           rdf:resource="http://purl.org/dc/dcmitype/StillImage" />
        <dc:title></dc:title>
      </cc:Work>
    </rdf:RDF>
  </metadata>
  <defs
     id="defs6">
    <linearGradient
       id="linearGradient895"
       inkscape:collect="always">
      <stop
         id="stop891"
         offset="0"
         style="stop-color:#5291bd;stop-opacity:1" />
      <stop
         style="stop-color:#5291bd;stop-opacity:1"
         offset="0.12336344"
         id="stop898" />
      <stop
         id="stop893"
         offset="1"
         style="stop-color:#5e99b9;stop-opacity:1" />
    </linearGradient>
    <linearGradient
       id="linearGradient1052"
       inkscape:collect="always">
      <stop
         id="stop1040"
         offset="0"
         style="stop-color:#66aed7;stop-opacity:1" />
      <stop
         style="stop-color:#6cb1d7;stop-opacity:1"
         offset="0.33128312"
         id="stop1042" />
      <stop
         style="stop-color:#76b6d7;stop-opacity:1"
         offset="0.5047847"
         id="stop1044" />
      <stop
         id="stop1046"
         offset="0.60396028"
         style="stop-color:#7bb6d5;stop-opacity:1" />
      <stop
         style="stop-color:#77b2d0;stop-opacity:1"
         offset="0.80198014"
         id="stop1048" />
      <stop
         id="stop1050"
         offset="1"
         style="stop-color:#6aa4c2;stop-opacity:1" />
    </linearGradient>
    <linearGradient
       inkscape:collect="always"
       id="linearGradient849">
      <stop
         style="stop-color:#608ea7;stop-opacity:1"
         offset="0"
         id="stop845" />
      <stop
         id="stop853"
         offset="0.16504955"
         style="stop-color:#5887a2;stop-opacity:1" />
      <stop
         style="stop-color:#4e7890;stop-opacity:1;"
         offset="0.29030523"
         id="stop1065" />
      <stop
         style="stop-color:#4a7289;stop-opacity:1"
         offset="0.34926009"
         id="stop855" />
      <stop
         id="stop861"
         offset="0.38956389"
         style="stop-color:#345a6c;stop-opacity:1" />
      <stop
         id="stop857"
         offset="0.44399697"
         style="stop-color:#33586d;stop-opacity:1" />
      <stop
         style="stop-color:#4e88a4;stop-opacity:0;"
         offset="1"
         id="stop847" />
    </linearGradient>
    <linearGradient
       inkscape:collect="always"
       xlink:href="#linearGradient1052"
       id="linearGradient828"
       x1="655.15594"
       y1="211.50072"
       x2="655.15594"
       y2="419.85751"
       gradientUnits="userSpaceOnUse"
       gradientTransform="matrix(0.39478084,0,0,0.39478084,-194.76369,-40.484262)" />
    <linearGradient
       inkscape:collect="always"
       xlink:href="#linearGradient849"
       id="linearGradient859"
       gradientUnits="userSpaceOnUse"
       gradientTransform="matrix(0.39478084,0,0,0.39478084,167.73039,-51.641922)"
       x1="-286.85046"
       y1="201.41634"
       x2="-286.85046"
       y2="326.29895" />
    <filter
       inkscape:label="Film Grain"
       inkscape:menu="Image Effects"
       inkscape:menu-tooltip="Adds a small scale graininess"
       style="color-interpolation-filters:sRGB"
       id="filter898">
      <feTurbulence
         type="fractalNoise"
         numOctaves="3"
         baseFrequency="1"
         seed="0"
         result="result0"
         id="feTurbulence888" />
      <feColorMatrix
         result="result4"
         values="0"
         type="saturate"
         id="feColorMatrix890" />
      <feComposite
         in="SourceGraphic"
         in2="result4"
         operator="arithmetic"
         k1="1.25"
         k2="0.5"
         k3="0.5"
         result="result2"
         id="feComposite892"
         k4="0" />
      <feBlend
         result="result5"
         mode="normal"
         in="result2"
         in2="SourceGraphic"
         id="feBlend894" />
      <feComposite
         in="result5"
         in2="SourceGraphic"
         operator="in"
         result="result3"
         id="feComposite896" />
    </filter>
    <filter
       inkscape:label="Film Grain"
       inkscape:menu="Image Effects"
       inkscape:menu-tooltip="Adds a small scale graininess"
       style="color-interpolation-filters:sRGB;"
       id="filter883">
      <feTurbulence
         type="fractalNoise"
         numOctaves="3"
         baseFrequency="1"
         seed="0"
         result="result0"
         id="feTurbulence873" />
      <feColorMatrix
         result="result4"
         values="0"
         type="saturate"
         id="feColorMatrix875" />
      <feComposite
         in="SourceGraphic"
         in2="result4"
         operator="arithmetic"
         k1="1.25"
         k2="0.5"
         k3="0.5"
         result="result2"
         id="feComposite877" />
      <feBlend
         result="result5"
         mode="normal"
         in="result2"
         in2="SourceGraphic"
         id="feBlend879" />
      <feComposite
         in="result5"
         in2="SourceGraphic"
         operator="in"
         result="result3"
         id="feComposite881" />
    </filter>
    <filter
       inkscape:label="Cross Noise"
       inkscape:menu="Overlays"
       inkscape:menu-tooltip="Adds a small scale screen like graininess"
       style="color-interpolation-filters:sRGB;"
       id="filter904">
      <feTurbulence
         type="fractalNoise"
         numOctaves="5"
         baseFrequency="1"
         seed="0"
         result="result0"
         id="feTurbulence892" />
      <feConvolveMatrix
         kernelMatrix="-2 0 -2 0 -10 0 -2 0 -2 "
         order="3 3"
         result="result5"
         id="feConvolveMatrix894" />
      <feColorMatrix
         result="result4"
         values="0"
         type="saturate"
         in="result5"
         id="feColorMatrix896" />
      <feComposite
         in2="result4"
         in="SourceGraphic"
         operator="arithmetic"
         k1="1.5"
         k2="0.5"
         k3="0.5"
         result="result2"
         id="feComposite898" />
      <feBlend
         result="result6"
         in2="result4"
         mode="normal"
         id="feBlend900" />
      <feComposite
         in2="SourceGraphic"
         in="result6"
         operator="in"
         result="result3"
         id="feComposite902" />
    </filter>
    <linearGradient
       inkscape:collect="always"
       xlink:href="#linearGradient895"
       id="linearGradient1027"
       x1="-174.83566"
       y1="61.990326"
       x2="-174.83566"
       y2="102.03755"
       gradientUnits="userSpaceOnUse"
       gradientTransform="translate(240.10695,0.69869368)" />
    <linearGradient
       id="linearGradient4885">
      <stop
         style="stop-color:#1296d5;stop-opacity:1;"
         offset="0"
         id="stop4881" />
      <stop
         style="stop-color:#4fb6e8;stop-opacity:1"
         offset="1"
         id="stop4883" />
    </linearGradient>
    <style
       id="current-color-scheme"
       type="text/css">
      .ColorScheme-Text {
        color:#4d4d4d;
      }
      </style>
    <linearGradient
       id="linearGradient3866">
      <stop
         id="stop3868"
         offset="0"
         style="stop-color:#000000;stop-opacity:0.52083331" />
      <stop
         id="stop3870"
         offset="1"
         style="stop-color:#2883c3;stop-opacity:0;" />
    </linearGradient>
    <linearGradient
       id="linearGradient3874">
      <stop
         id="stop3876"
         offset="0"
         style="stop-color:#000d0e;stop-opacity:0.84105963;" />
      <stop
         id="stop3878"
         offset="1"
         style="stop-color:#000000;stop-opacity:0;" />
    </linearGradient>
    <style
       id="current-color-scheme-3"
       type="text/css">
      .ColorScheme-Text {
        color:#4d4d4d;
      }
      </style>
    <linearGradient
       xlink:href="#linearGradient4885"
       id="linearGradient4887"
       x1="40.32296"
       y1="61.076542"
       x2="40.407059"
       y2="77.951225"
       gradientUnits="userSpaceOnUse"
       gradientTransform="matrix(3.4414163,0,0,3.4414163,-143.50212,-171.30265)" />
  </defs>
  <sodipodi:namedview
     pagecolor="#ffffff"
     bordercolor="#666666"
     borderopacity="1"
     objecttolerance="10"
     gridtolerance="10"
     guidetolerance="10"
     inkscape:pageopacity="0"
     inkscape:pageshadow="2"
     inkscape:window-width="1920"
     inkscape:window-height="1031"
     id="namedview4"
     showgrid="false"
     inkscape:zoom="3.0428573"
     inkscape:cx="32.566695"
     inkscape:cy="60.686376"
     inkscape:window-x="0"
     inkscape:window-y="26"
     inkscape:window-maximized="1"
     inkscape:current-layer="svg2" />
  <path
     style="opacity:1;fill:url(#linearGradient859);fill-opacity:1;stroke:none;stroke-width:0.78956169;stroke-linecap:round;stroke-linejoin:round;stroke-miterlimit:4;stroke-dasharray:none;stroke-dashoffset:0;stroke-opacity:0.85098039;paint-order:fill markers stroke"
     d="m 7.93424,28.214947 c -3.39101,0 -6.12143,2.72966 -6.12143,6.12064 v 27.21058 c 19.29378,15.45725 121.85448,17.08511 124.92215,4.10729 v -21.8277 c 0,-3.39099 -2.73042,-6.12065 -6.12139,-6.12065 H 48.99014 c -3.59598,0 -5.76696,-4.55304 -8.20378,-7.85362 -1.09185,-1.01636 -2.5579,-1.63654 -4.17426,-1.63654 z"
     id="rect838"
     inkscape:connector-curvature="0"
     sodipodi:nodetypes="ssccssscss" />
  <path
     style="opacity:1;fill:url(#linearGradient828);fill-opacity:1;stroke:none;stroke-width:0.78956169;stroke-linecap:round;stroke-linejoin:round;stroke-miterlimit:4;stroke-dasharray:none;stroke-dashoffset:0;stroke-opacity:0.85098039;paint-order:fill markers stroke"
     d="m 8.38437,43.357317 c -3.61237,0 -6.52083,2.90771 -6.52083,6.52005 v 27.21443 42.088113 3.24383 c 0,1.81543 1.46155,3.27699 3.27699,3.27699 h 3.24384 111.81164 3.24305 c 1.81544,0 3.27699,-1.46156 3.27699,-3.27699 v -3.24383 -42.088113 -27.21443 c 0,-3.61234 -2.90771,-6.52005 -6.52004,-6.52005 z"
     id="rect817"
     inkscape:connector-curvature="0" />
  <path
     inkscape:connector-curvature="0"
     style="opacity:1;fill:#ebf5fa;fill-opacity:0.23626374;stroke:none;stroke-width:0.78956169;stroke-linecap:round;stroke-linejoin:round;stroke-miterlimit:4;stroke-dasharray:none;stroke-dashoffset:0;stroke-opacity:0.85098039;paint-order:fill markers stroke"
     d="m 8.38402,43.357187 c -3.61236,0 -6.52082,2.90772 -6.52082,6.52005 v 0.27527 c 0,-3.61233 2.90846,-6.52005 6.52082,-6.52005 h 111.81165 c 3.61232,0 6.52005,2.90772 6.52005,6.52005 v -0.27527 c 0,-3.61233 -2.90773,-6.52005 -6.52005,-6.52005 z"
     id="path904" />
  <path
     style="fill:none;stroke:#ffffff;stroke-width:0.31582469;stroke-linecap:butt;stroke-linejoin:miter;stroke-miterlimit:4;stroke-dasharray:none;stroke-opacity:0.2527473"
     d="M 2.09504,115.95084 H 126.38613"
     id="path909"
     inkscape:connector-curvature="0" />
  <g
     id="g925"
     transform="matrix(0.39478084,0,0,0.39478084,-44.90948,-40.528782)">
    <path
       inkscape:connector-curvature="0"
       id="path919"
       d="M 118.62489,404.50427 H 433.46057"
       style="fill:none;stroke:#ffffff;stroke-width:0.80000001;stroke-linecap:butt;stroke-linejoin:miter;stroke-miterlimit:4;stroke-dasharray:none;stroke-opacity:0.18681317" />
    <path
       style="fill:none;stroke:#22394c;stroke-width:0.80000001;stroke-linecap:butt;stroke-linejoin:miter;stroke-miterlimit:4;stroke-dasharray:none;stroke-opacity:0.27472528"
       d="M 118.62489,403.68267 H 433.46057"
       id="path921"
       inkscape:connector-curvature="0" />
  </g>
  <g
     id="g931"
     transform="matrix(0.39478084,0,0,0.39478084,-44.90948,-37.088532)">
    <path
       style="fill:none;stroke:#ffffff;stroke-width:0.80000001;stroke-linecap:butt;stroke-linejoin:miter;stroke-miterlimit:4;stroke-dasharray:none;stroke-opacity:0.18681317"
       d="M 118.62489,404.50427 H 433.46057"
       id="path927"
       inkscape:connector-curvature="0" />
    <path
       inkscape:connector-curvature="0"
       id="path929"
       d="M 118.62489,403.68267 H 433.46057"
       style="fill:none;stroke:#22394c;stroke-width:0.80000001;stroke-linecap:butt;stroke-linejoin:miter;stroke-miterlimit:4;stroke-dasharray:none;stroke-opacity:0.29670332" />
  </g>
  <path
     style="opacity:1;fill:url(#linearGradient1027);fill-opacity:1;stroke-width:2.2138629"
     d="m 46.489013,61.89719 c -11.797002,5.38e-4 -21.359912,9.564332 -21.359372,21.361329 5.4e-4,11.796234 9.56313,21.358831 21.359372,21.359371 6.336905,0 11.997993,-2.74026 15.914062,-7.119136 h 3.773437 c 3.916071,4.378876 9.577157,7.119136 15.914063,7.119136 11.796233,-5.4e-4 21.358845,-9.563137 21.359375,-21.359371 5.4e-4,-11.796997 -9.562379,-21.360791 -21.359375,-21.361329 z m -3.558592,10.681641 h 7.119139 v 7.119141 h 7.11914 v 7.121094 h -7.11914 v 7.11914 h -7.119139 v -7.11914 h -7.1211 v -7.121094 h 7.1211 z m 44.499998,0 c 2.949059,1.34e-4 5.339709,2.390785 5.339843,5.339844 -1.34e-4,2.949059 -2.390784,5.33971 -5.339843,5.339844 -2.949058,-1.34e-4 -5.33971,-2.390785 -5.339844,-5.339844 1.34e-4,-2.949059 2.390786,-5.33971 5.339844,-5.339844 z M 76.750732,83.258519 c 2.949059,1.34e-4 5.339708,2.390784 5.339843,5.339843 -1.35e-4,2.949058 -2.390785,5.33971 -5.339843,5.339844 -2.949821,9.45e-4 -5.341662,-2.390023 -5.341797,-5.339844 1.34e-4,-2.949822 2.391975,-5.340788 5.341797,-5.339843 z"
     id="path980-7"
     inkscape:connector-curvature="0"
     sodipodi:nodetypes="csccccsccccccccccccccccccccccccc" />
  <path
     style="opacity:1;fill:#386e93;fill-opacity:0.25475284;stroke-width:2.2138629"
     d="M 46.488281 61.896484 C 34.691279 61.897022 25.128366 71.460815 25.128906 83.257812 C 25.128919 83.533465 25.140029 83.806959 25.150391 84.080078 C 25.582464 72.664591 34.966949 63.541541 46.488281 63.541016 L 82.089844 63.541016 C 93.611174 63.541541 102.99762 72.664586 103.42969 84.080078 C 103.44005 83.806963 103.44921 83.533461 103.44922 83.257812 C 103.44976 71.460815 93.88684 61.897022 82.089844 61.896484 L 46.488281 61.896484 z M 82.160156 78.740234 C 82.118559 79.008764 82.089856 79.282318 82.089844 79.5625 C 82.089978 82.511559 84.48063 84.90221 87.429688 84.902344 C 90.378747 84.90221 92.769397 82.511559 92.769531 79.5625 C 92.769519 79.282318 92.742769 79.008764 92.701172 78.740234 C 92.30494 81.298121 90.098565 83.257691 87.429688 83.257812 C 84.760811 83.257691 82.556389 81.298121 82.160156 78.740234 z M 35.808594 86.818359 L 35.808594 88.462891 L 42.929688 88.462891 L 42.929688 86.818359 L 35.808594 86.818359 z M 50.048828 86.818359 L 50.048828 88.462891 L 57.167969 88.462891 L 57.167969 86.818359 L 50.048828 86.818359 z M 71.478516 89.419922 C 71.436899 89.688515 71.408216 89.961933 71.408203 90.242188 C 71.408338 93.192008 73.800179 95.582976 76.75 95.582031 C 79.699058 95.581897 82.089709 93.191245 82.089844 90.242188 C 82.089831 89.962006 82.063081 89.688452 82.021484 89.419922 C 81.625252 91.977808 79.418876 93.937379 76.75 93.9375 C 74.080433 93.938355 71.87494 91.978414 71.478516 89.419922 z M 42.929688 93.9375 L 42.929688 95.582031 L 50.048828 95.582031 L 50.048828 93.9375 L 42.929688 93.9375 z "
     id="path1065" />
</svg>

<svg width="128" height="128" version="1.1" viewBox="0 0 128 128" xmlns="http://www.w3.org/2000/svg">
<defs>
<linearGradient id="linearGradient828" x1="655.16" x2="655.16" y1="211.5" y2="419.86" gradientTransform="matrix(.39478 0 0 .39478 -194.76 -40.484)" gradientUnits="userSpaceOnUse"/>
<linearGradient id="linearGradient859" x1="-286.85" x2="-286.85" y1="201.42" y2="326.3" gradientTransform="matrix(.39478 0 0 .39478 167.73 -51.642)" gradientUnits="userSpaceOnUse"/>
<linearGradient id="linearGradient1027" x1="-174.84" x2="-174.84" y1="61.99" y2="102.04" gradientTransform="translate(240.11 .69869)" gradientUnits="userSpaceOnUse"/>
<style id="current-color-scheme" type="text/css">.ColorScheme-Text {
        color:#4d4d4d;
      }</style>
<style id="current-color-scheme-3" type="text/css">.ColorScheme-Text {
        color:#4d4d4d;
      }</style>
</defs>
<path d="m7.9342 28.215c-3.391 0-6.1214 2.7297-6.1214 6.1206v27.211c19.294 15.457 121.85 17.085 124.92 4.1073v-21.828c0-3.391-2.7304-6.1206-6.1214-6.1206h-71.623c-3.596 0-5.767-4.553-8.2038-7.8536-1.0918-1.0164-2.5579-1.6365-4.1743-1.6365z" fill="url(#linearGradient859)" style="paint-order:fill markers stroke"/>
<path d="m8.3844 43.357c-3.6124 0-6.5208 2.9077-6.5208 6.52v72.546c0 1.8154 1.4616 3.277 3.277 3.277h118.3c1.8154 0 3.277-1.4616 3.277-3.277v-72.546c0-3.6123-2.9077-6.52-6.52-6.52z" fill="url(#linearGradient828)" style="paint-order:fill markers stroke"/>
<path d="m8.384 43.357c-3.6124 0-6.5208 2.9077-6.5208 6.52v0.27527c0-3.6123 2.9085-6.52 6.5208-6.52h111.81c3.6123 0 6.52 2.9077 6.52 6.52v-0.27527c0-3.6123-2.9077-6.52-6.52-6.52z" fill="#ebf5fa" fill-opacity=".23626" style="paint-order:fill markers stroke"/>
<path d="m2.095 115.95h124.29" fill="none" stroke="#fff" stroke-opacity=".25275" stroke-width=".31582"/>
<g transform="matrix(.39478 0 0 .39478 -44.909 -40.529)" fill="none" stroke-width=".8">
<path d="m118.62 404.5h314.84" stroke="#fff" stroke-opacity=".18681"/>
<path d="m118.62 403.68h314.84" stroke="#22394c" stroke-opacity=".27473"/>
</g>
<g transform="matrix(.39478 0 0 .39478 -44.909 -37.089)" fill="none" stroke-width=".8">
<path d="m118.62 404.5h314.84" stroke="#fff" stroke-opacity=".18681"/>
<path d="m118.62 403.68h314.84" stroke="#22394c" stroke-opacity=".2967"/>
</g>
<path d="m46.489 61.897c-11.797 5.38e-4 -21.36 9.5643-21.359 21.361 5.4e-4 11.796 9.5631 21.359 21.359 21.359 6.3369 0 11.998-2.7403 15.914-7.1191h3.7734c3.9161 4.3789 9.5772 7.1191 15.914 7.1191 11.796-5.4e-4 21.359-9.5631 21.359-21.359 5.4e-4 -11.797-9.5624-21.361-21.359-21.361zm-3.5586 10.682h7.1191v7.1191h7.1191v7.1211h-7.1191v7.1191h-7.1191v-7.1191h-7.1211v-7.1211h7.1211zm44.5 0c2.9491 1.34e-4 5.3397 2.3908 5.3398 5.3398-1.34e-4 2.9491-2.3908 5.3397-5.3398 5.3398-2.9491-1.34e-4 -5.3397-2.3908-5.3398-5.3398 1.34e-4 -2.9491 2.3908-5.3397 5.3398-5.3398zm-10.68 10.68c2.9491 1.34e-4 5.3397 2.3908 5.3398 5.3398-1.35e-4 2.9491-2.3908 5.3397-5.3398 5.3398-2.9498 9.45e-4 -5.3417-2.39-5.3418-5.3398 1.34e-4 -2.9498 2.392-5.3408 5.3418-5.3398z" fill="url(#linearGradient1027)" stroke-width="2.2139"/>
<path d="m46.488 61.896c-11.797 5.38e-4 -21.36 9.5643-21.359 21.361 1.3e-5 0.27565 0.011123 0.54915 0.021485 0.82227 0.43207-11.415 9.8166-20.539 21.338-20.539h35.602c11.521 5.25e-4 20.908 9.1236 21.34 20.539 0.01036-0.27312 0.01952-0.54662 0.01953-0.82227 5.4e-4 -11.797-9.5624-21.361-21.359-21.361h-35.602zm35.672 16.844c-0.041597 0.26853-0.0703 0.54208-0.070312 0.82227 1.34e-4 2.9491 2.3908 5.3397 5.3398 5.3398 2.9491-1.34e-4 5.3397-2.3908 5.3398-5.3398-1.2e-5 -0.28018-0.026762-0.55374-0.068359-0.82227-0.39623 2.5579-2.6026 4.5175-5.2715 4.5176-2.6689-1.21e-4 -4.8733-1.9597-5.2695-4.5176zm-46.352 8.0781v1.6445h7.1211v-1.6445h-7.1211zm14.24 0v1.6445h7.1191v-1.6445h-7.1191zm21.43 2.6016c-0.041617 0.26859-0.0703 0.54201-0.070313 0.82227 1.35e-4 2.9498 2.392 5.3408 5.3418 5.3398 2.9491-1.34e-4 5.3397-2.3908 5.3398-5.3398-1.3e-5 -0.28018-0.026763-0.55374-0.06836-0.82227-0.39623 2.5579-2.6026 4.5175-5.2715 4.5176-2.6696 8.55e-4 -4.8751-1.9591-5.2715-4.5176zm-28.549 4.5176v1.6445h7.1191v-1.6445h-7.1191z" fill="#386e93" fill-opacity=".25475" stroke-width="2.2139"/>
</svg>
